X: 8071
T: Connor Bones
R: reel
M: 4/4
K: Amixolydian
A2Ac cBAF|D2DF FEDF|E2cE AEcE|EFAc BAFE|
A2Ac cBAF|D2DF FEDF|E2cE AEcE|EFAc BAAB:|
c2cd ecAc|d2de fdBd|c2cd ecAc|EFAc BAAB|
c2cd ecAc|d2de fdBd|1 c2cB ABAF|
EFAc BAAB:|2 cdBc ABFA|EFAc BAFE||

